X:1
T:Father, Lead Me Home
T:Father, Lead Me Home
T:Anna C. Barrow
T:William C. Stokes, 1900
T:Public Domain Courtesy of the Cyber Hymnal™
T:Public Domain Courtesy of the Cyber Hymnal™
C:Anna C. Barrow
Z:Public Domain
Z:Courtesy of the Cyber Hymnal™
%%score ( 1 2 ) ( 3 4 )
L:1/8
Q:1/4=100
M:4/4
K:Ab
V:1 treble 
V:2 treble 
V:3 bass 
V:4 bass 
V:1
 E2 | [EA]3 [EG] [EB][EA][Ad][Ac] | [F=B]4 [Ec]2 [Ac]2 | [Ae]3 [EG] [EA][GB] [AB]>[Ac] | %4
w: 1.~The|way is long and dark, my|Fa- ther, And|all a- round is filled with|
w: 2.~Thick,|hea- vy clouds are hover- ing|o’er me, And|help- less thro’ the gloom I|
w: 3.~Far,|far a- way from Thee I’ve|wan- dered; Back|to Thy side in faith I|
w: 4.~Of|self and sin, O Lord, I’m|wea- ry; A-|way from Thee no more I’ll|
 [GB]6 [Ge]2 | [_Ge]3 [GA] [GB][Gc][Fd][Ae] | [Af]4 [Ae]2 [EA]2 | [EG][EA][FB][Fd] ([Ac]2 [GB]>)A | %8
w: gloom; Come|near, and reach Thy hand, I|pray Thee, And|kind- ly, gent- ly lead * me|
w: roam; O|Fa- ther, let me feel Thy|pre- sence, And|kind- ly, gent- ly lead * me|
w: come; On|bend- ed knee I’m hum- bly|plead- ing, O|Fa- ther, kind- ly lead * me|
w: roam; In|life, in death, O keep me|near Thee; O|Fa- ther, gent- ly lead * me|
 A6 z2 ||"^Refrain" [EG]3 [EA] [EB]dcB | [EA]3 [EB] [Ec]fec | [Ac]3 d [Ee][Ec][EB][FA] | %12
w: home.||||
w: home.|Lead me home, O Fa- ther,|Lead me home, O Fa- ther,|Ne- ver- more from Thee to|
w: home.||||
w: home.||||
 (A4 G2 F2) | E3 [DG] G4 | E3 [EA] A4 | [EA][EA][EG][EA] ([GB]2 A)[EG] x/ | A4- [EA]2 |] %17
w: |||||
w: roam; * *|Lead me home,|lead me home,|Je- sus, Sav- ior, lead * me|home. *|
w: |||||
w: |||||
V:2
 E2 | x8 | x8 | x8 | x8 | x8 | x8 | x15/2 A/ | A6 x2 || x8 | x8 | x3 (G/F/) x4 | _C8 | %13
 (B,CD) (DDED) x | (C=B,C) (=DDFD) x | x6 A x3/2 | EFE=D x2 |] %17
V:3
 [A,C]2 | [A,C]3 [A,B,] [A,D][A,C][A,F][A,E] | [A,=D]4 [A,E]2 [A,E]2 | %3
w: ~|~ ~ ~ ~ ~ ~|~ ~ ~|
 [E,C]3 [E,B,] [E,C][E,D] [F,=D]>[B,,D] | (E4 D2) [E,D]2 | [A,C]3 [A,C] [A,D][A,E][A,F][A,C] | %6
w: ~ ~ ~ ~ ~ ~|~ * ~|~ ~ ~ ~ ~ ~|
 [D,D]4 [A,C]2 [A,C]2 | [A,B,][A,C][D,D][D,B,] (E2 D>)[A,,A,C] | [A,,A,C]6 z2 || %9
w: ~ ~ ~|~ ~ ~ ~ ~ * ~|~|
 [E,B,]3 [E,C] [E,D]FED | [A,C]3 [A,D] [A,E]DCE | [A,,E]3 [B,,D] [C,C]A,[G,B,][F,C] | %12
w: ~ ~ ~ ~ ~ ~|~ ~ ~ ~ ~ ~|~ ~ ~ ~ ~ ~|
 (F,4 G,2 A,2) | [E,G,]3 [E,B,] B,B,CB, | A,3 [A,C] _CCA,C | %15
w: ~ * *|~ ~ ~ O kind- ly|~ ~ ~ O gent- ly,|
 [E,C][E,C][E,B,][E,C] (D2 C) (B,/D/) x/ | CDC=B, [A,,C]2 |] %17
w: ~ ~ ~ ~ ~ * ~ *|~ O lead me home.|
V:4
 x2 | x8 | x8 | x8 | E,6 x2 | x8 | x8 | x4 E,7/2 x/ | x8 || x8 | x8 | x5 A, x2 | =D,8 | x4 E,4 | %14
 A,3 F,4 x | x4 E,7/2 E, | A,,4- x2 |] %17

